X:24
T:Sleepy Fox
M:2/4
L:1/16
Z:jason
B: Bob Walters, 1961
K:A
A,A, | A,2 AB cBAc | faea fecA | E2GB eagf | efed cde2 |
A,2 AB cBAc | faea fecA | E2GB eagf | edcB A2 :|
|: ee | !2!c'2c'b c'!4!e'!2!c'!4!a | !0!efed ceae | EBGB EBGB | Aceg fece |
!2!c'2c'b c'!4!e'!2!c'!4!a | !0!efed ceae  | E2GB eagf | edcB A2 :|

